X:1
T:The Orphan Girl
F:http://www.folkinfo.org/songs
M:3/4
L:1/8
C:Music by Eld. C.G. Keith. Nov. 1, 1905
K:Eb
B:The B.F. White Sacred Harp (Rev. Cooper Ed.), p. 506
z8(EG)|B4c2|B4G> B|B4(G> F)|E4B> B|e4e> e|f4c2|
w:1."No_ home, no home," plead a lit-tle_ girl, At the door of a price-ly
B4|:(B> B)|g4f2|e4e> c|B4B2|E4HG2|(FE4)c|
w: hall, As she trem-bling stood on the pol-ished step, And lean'd_ on
BB3(GF)|E6:|]
w:the mar-ble_ wall.
